svg/education/drum_fill.svg

<svg xmlns="http://www.w3.org/2000/svg" width="24" height="24" viewBox="0 0 24 24"><g fill="none" fill-rule="evenodd"><path d="M24,0 L24,24 L0,24 L0,0 L24,0 Z M12.5935,23.2578 L12.5819,23.2595 L12.5109,23.295 L12.4919,23.2987 L12.4767,23.295 L12.4057,23.2595 C12.3958,23.2564 12.387,23.259 12.3821,23.2649 L12.378,23.2758 L12.3609,23.7031 L12.3659,23.7235 L12.3769,23.7357 L12.4805,23.8097 L12.4953,23.8136 L12.5071,23.8097 L12.6107,23.7357 L12.6233,23.7197 L12.6267,23.7031 L12.6096,23.2758 C12.6076,23.2657 12.601,23.2593 12.5935,23.2578 Z M12.8584,23.1453 L12.8445,23.1473 L12.6598,23.2397 L12.6499,23.2499 L12.6472,23.2611 L12.6651,23.6906 L12.6699,23.7034 L12.6784,23.7105 L12.8793,23.8032 C12.8914,23.8069 12.9022,23.803 12.9078,23.7952 L12.9118,23.7812 L12.8777,23.1665 C12.8753,23.1546 12.8674,23.147 12.8584,23.1453 Z M12.143,23.1473 C12.1332,23.1424 12.1222,23.1453 12.1156,23.1526 L12.1099,23.1665 L12.0758,23.7812 C12.0751,23.7927 12.0828,23.8019 12.0926,23.8046 L12.1083,23.8032 L12.3092,23.7105 L12.3186,23.7024 L12.3225,23.6906 L12.3404,23.2611 L12.3372,23.2485 L12.3278,23.2397 L12.143,23.1473 Z"/><path fill="#09244B" d="M17.3034,4 C17.7539,4 18.2173,4.15186 18.587,4.4758 C20.6775,6.30724 22,8.99978 22,12 C22,15.0002 20.6775,17.6928 18.587,19.5242 C18.2635125,19.8076125 17.8682859,19.9593375 17.472734,19.9928404 L17.3034,20 L6.69659,20 C6.24611,20 5.78274,19.8481 5.41298,19.5242 C3.32249,17.6928 2,15.0002 2,12 C2,8.99978 3.32249,6.30724 5.41298,4.4758 C5.73652,4.1923525 6.13173016,4.04065375 6.52726379,4.00715793 L6.69659,4 L17.3034,4 Z M18.93,16 L5.07001,16 C5.50536,16.7525 6.05997,17.4277 6.70833,18 L17.2917,18 C17.94,17.4277 18.4946,16.7525 18.93,16 Z M17.2917,6 L6.70833,6 C6.15259286,6.49055143 5.66573327,7.05668816 5.26381583,7.68230781 L5.07001,8 L18.93,8 C18.5568,7.355 18.0960245,6.76679918 17.5637318,6.25149994 L17.2917,6 Z"/></g></svg>

<svg xmlns="http://www.w3.org/2000/svg" width="24" height="24"><g fill="none" fill-rule="evenodd"><path d="M24 0v24H0V0zM12.594 23.258l-.012.002-.071.035-.02.004-.014-.004-.071-.036c-.01-.003-.019 0-.024.006l-.004.01-.017.428.005.02.01.013.104.074.015.004.012-.004.104-.074.012-.016.004-.017-.017-.427c-.002-.01-.009-.017-.016-.018m.264-.113-.014.002-.184.093-.01.01-.003.011.018.43.005.012.008.008.201.092c.012.004.023 0 .029-.008l.004-.014-.034-.614c-.003-.012-.01-.02-.02-.022m-.715.002a.023.023 0 0 0-.027.006l-.006.014-.034.614c0 .012.007.02.017.024l.015-.002.201-.093.01-.008.003-.011.018-.43-.003-.012-.01-.01z"/><path fill="#09244B" d="M17.303 4c.45 0 .914.152 1.284.476A9.979 9.979 0 0 1 22 12c0 3-1.323 5.693-3.413 7.524a1.933 1.933 0 0 1-1.114.469l-.17.007H6.697c-.45 0-.914-.152-1.284-.476A9.979 9.979 0 0 1 2 12c0-3 1.322-5.693 3.413-7.524a1.933 1.933 0 0 1 1.114-.469L6.697 4zm1.627 12H5.07c.435.753.99 1.428 1.638 2h10.584a8.041 8.041 0 0 0 1.638-2M17.292 6H6.708a8.045 8.045 0 0 0-1.444 1.682L5.07 8h13.86a8.036 8.036 0 0 0-1.366-1.749z"/></g></svg>
